public/images/sponsors/DigIO.svg

<svg fill="none" height="86" viewBox="0 0 172 86" width="172" xmlns="http://www.w3.org/2000/svg"><path clip-rule="evenodd" d="m110.096 38.8424c.242-7.1763 5.601-12.8209 13.003-13.6956 8.515-1.0063 15.929 4.4653 16.807 12.4035 1.054 9.5361-6.892 17.0451-16.834 15.9087-7.809-.8925-13.233-7.0028-12.976-14.6166zm-78.096 14.2729v-13.8152-13.8151l6.1951.0199c6.7243.0216 6.7378.0222 8.3405.337 6.5693 1.2907 11.0123 6.1811 11.3955 12.5429.4254 7.0624-4.1501 12.8888-11.2665 14.3467-.3506.0718-.6237.1285-.8987.1733-1.0408.1698-2.1092.171-7.5159.1893zm67.8573-.0066v-13.8087-13.8087h3.0497 3.049v13.8087 13.8087h-3.049zm33.1637-10.7424c1.804-5.282-1.333-10.7817-6.625-11.6158-6.533-1.0296-11.508 5.0962-9.338 11.499 2.556 7.5467 13.399 7.6261 15.963.1168zm-81.5692-3.82c-.3573-4.0217-2.8122-6.6917-6.8419-7.4414-.3472-.0646-1.066-.0869-3.4203-.1062l-2.9808-.0244v8.3216 8.3216h2.667c3.3245 0 3.9812-.0642 5.3179-.5201 3.5401-1.2073 5.6112-4.5755 5.2581-8.5511zm20.6019 2.0867c.3488-4.9271 3.6191-8.4286 8.408-9.0024 2.8359-.3398 5.3837.5046 7.5021 2.4863l.5748.5377v-1.3515-1.3516h3.077 3.0769l-.0005 8.1964c-.0005 8.1591-.0268 9.6225-.194 10.8149-.8189 5.8375-4.5051 8.4948-11.7885 8.4979-3.3557.0014-6.1921-.5907-8.9672-1.872-.3563-.1645-.6369-.3253-.6234-.3573.1121-.2659 2.0358-4.3737 2.0619-4.4028.0187-.0208.349.1194.734.3115 2.3891 1.1925 5.0564 1.7426 7.4315 1.5329 3.5879-.3168 5.173-2.0302 5.2824-5.7096l.0295-.996-.5559.5754c-1.7614 1.8231-3.4447 2.6347-5.7733 2.7835-6.2452.399-10.73-4.2683-10.2753-10.6933zm-9.8888 12.4757v-10.5786-10.5786h3.0495 3.0494v10.5786 10.5786h-3.0494zm26.0796-9.6892c1.2287-2.9805-.4747-6.1051-3.6821-6.7543-4.1977-.8495-7.4929 2.7057-6.1125 6.5947 1.4429 4.0655 8.1395 4.1746 9.7946.1596z" fill="#00838f" fill-rule="evenodd"/><path d="m62.165 22.9879v2.9878h3.0495 3.0495v-2.9878-2.9879h-3.0495-3.0495z" fill="#ef4b23"/><path d="m99.8574 65.0599v-2.9878-2.9879h3.0496 3.049v2.9879 2.9878h-3.049z" fill="#8c66ff"/></svg>

<svg width="172" height="86" viewBox="0 0 172 86" fill="none" xmlns="http://www.w3.org/2000/svg">
<path fill-rule="evenodd" clip-rule="evenodd" d="M110.096 38.8424C110.338 31.6661 115.697 26.0215 123.099 25.1468C131.614 24.1405 139.028 29.6121 139.906 37.5503C140.96 47.0864 133.014 54.5954 123.072 53.459C115.263 52.5665 109.839 46.4562 110.096 38.8424ZM32 53.1153V39.3001V25.485L38.1951 25.5049C44.9194 25.5265 44.9329 25.5271 46.5356 25.8419C53.1049 27.1326 57.5479 32.023 57.9311 38.3848C58.3565 45.4472 53.781 51.2736 46.6646 52.7315C46.314 52.8033 46.0409 52.86 45.7659 52.9048C44.7251 53.0746 43.6567 53.0758 38.25 53.0941L32 53.1153ZM99.8573 53.1087V39.3V25.4913H102.907H105.956V39.3V53.1087H102.907H99.8573ZM133.021 42.3663C134.825 37.0843 131.688 31.5846 126.396 30.7505C119.863 29.7209 114.888 35.8467 117.058 42.2495C119.614 49.7962 130.457 49.8756 133.021 42.3663ZM51.4518 38.5463C51.0945 34.5246 48.6396 31.8546 44.6099 31.1049C44.2627 31.0403 43.5439 31.018 41.1896 30.9987L38.2088 30.9743V39.2959V47.6175H40.8758C44.2003 47.6175 44.857 47.5533 46.1937 47.0974C49.7338 45.8901 51.8049 42.5219 51.4518 38.5463ZM72.0537 40.633C72.4025 35.7059 75.6728 32.2044 80.4617 31.6306C83.2976 31.2908 85.8454 32.1352 87.9638 34.1169L88.5386 34.6546V33.3031V31.9515H91.6156H94.6925L94.692 40.1479C94.6915 48.307 94.6652 49.7704 94.498 50.9628C93.6791 56.8003 89.9929 59.4576 82.7095 59.4607C79.3538 59.4621 76.5174 58.87 73.7423 57.5887C73.386 57.4242 73.1054 57.2634 73.1189 57.2314C73.231 56.9655 75.1547 52.8577 75.1808 52.8286C75.1995 52.8078 75.5298 52.948 75.9148 53.1401C78.3039 54.3326 80.9712 54.8827 83.3463 54.673C86.9342 54.3562 88.5193 52.6428 88.6287 48.9634L88.6582 47.9674L88.1023 48.5428C86.3409 50.3659 84.6576 51.1775 82.329 51.3263C76.0838 51.7253 71.599 47.058 72.0537 40.633ZM62.1649 53.1087V42.5301V31.9515H65.2144H68.2638V42.5301V53.1087H65.2144H62.1649ZM88.2445 43.4195C89.4732 40.439 87.7698 37.3144 84.5624 36.6652C80.3647 35.8157 77.0695 39.3709 78.4499 43.2599C79.8928 47.3254 86.5894 47.4345 88.2445 43.4195Z" fill="#00838F"/>
<path d="M62.165 22.9879V25.9757H65.2145H68.264V22.9879V20H65.2145H62.165V22.9879Z" fill="#EF4B23"/>
<path d="M99.8574 65.0599V62.0721V59.0842H102.907H105.956V62.0721V65.0599H102.907H99.8574Z" fill="#8C66FF"/>
</svg>
